X:55
T: Is It the Priest You Want
S: "Johnny O'Leary of Sliabh Luachra" (#46)
Z: B.Black
L: 1/8
M: 12/8
Q: 350
R: slide
K: G
fg|: edB d2B d2B B2g|edB d2B c2A A2G|
edB d2B BAB gfg|1 BAB ged B2G G2f :|2\
BAB ged B2G G3 ||
gfg eaf g2e e2d|e2a aga b2e e2f|
gbg faf g2e e2d|BAB ged B2G G3 :|
